X: 39020
T: Swalwell Lasses, The
R: hornpipe
M: 4/4
K: Gmajor
|:D|G2 GB AGAB|G2 e2 edBc|dcAc cBAG|EAAG GFED|
G2 GB AGAB|G2 e2 edBc|dcAB cBAG|EGFA G3:|
|:^C|DGGA B2 AG|EAAB cBAG|Bdeg Bdeg|BddB cBAG|
DGGA B2 AG|EAAB cBAG|Bdeg Bdef|EGFA G3:|

